X: 352
T: 8.e Lindulgence
T: l'Indulgence
N: The title is missing an apostrophe.
B: Robert Landrin "Potpourri fran\,cois des contre-danse ancienne tel quil se danse chez la Reine ..." 1760 p.35 #2 dance 11 #8
S: http://memory.loc.gov/cgi-bin/query/D?musdibib:2:./temp/~ammem_EbRS:
Z: 2014 John Chambers <jc:trillian.mit.edu>
M: 6/8
L: 1/8
K: Dm
% - - - - - - - - - - - - - - - - - - - - - - - - -
d2e |\
fgf efd | e2A dcB | AGF EAG | F2D d2e |\
fgf efd | e2A dcB | AGF ED^C | D3 :|
|: "2.F."A2B |\
cdc cBA | B2G G2A | BcB BAG | A2F F2G |\
ABA AGF | G2E E2F | GAG GFE | F2D
A2B |\
c2c cdc | B2B B2^c | d2d ded | ^c2c d2e |\
fgf efd | e2A dcB | AGF !+!E2D | D3 :|
% - - - - - - - - - - - - - - - - - - - - - - - - -

%%sep 1 1 500
%%sep 1 1 500
